packages/foundations/assets/icons/functional/images/devices/printer_24_filled.svg

<svg xmlns="http://www.w3.org/2000/svg" width="20" height="20" fill="none"><path fill="#1A1C1F" fill-rule="evenodd" d="M5.669 2.039c-.246.071-.491.304-.608.578-.027.063-.049.331-.06.733l-.018.633L4.081 4l-.901.017-.255.125c-.427.212-.751.642-.873 1.16-.077.324-.077 6.154-.001 6.447.155.596.627 1.06 1.219 1.2.157.037.413.05.972.051H5v2.142l.001 2.141.079.17c.097.208.314.393.566.482.181.063.301.065 4.413.065h4.228l.173-.086a.98.98 0 0 0 .473-.538c.064-.172.067-.257.067-2.277V13h.793c1.079 0 1.3-.063 1.702-.481.201-.209.294-.361.417-.684.07-.183.071-.217.081-3.283.006-2.094-.002-3.154-.026-3.269a1.66 1.66 0 0 0-.893-1.125l-.285-.141L15.903 4l-.886-.017L15 3.317c-.016-.655-.018-.67-.109-.824-.099-.168-.218-.271-.458-.398l-.15-.078-4.25-.006c-2.735-.004-4.29.006-4.364.028M8 7v1H5V6h3zm5 6.5V16H7v-5h6z"/></svg>

<svg width="20" height="20" viewBox="0 0 20 20" fill="none" xmlns="http://www.w3.org/2000/svg"><path d="M5.669 2.039 C 5.423 2.110,5.178 2.343,5.061 2.617 C 5.034 2.680,5.012 2.948,5.001 3.350 L 4.983 3.983 4.081 4.000 L 3.180 4.017 2.925 4.142 C 2.498 4.354,2.174 4.784,2.052 5.302 C 1.975 5.626,1.975 11.456,2.051 11.749 C 2.206 12.345,2.678 12.809,3.270 12.949 C 3.427 12.986,3.683 12.999,4.242 13.000 L 5.000 13.000 5.000 15.142 L 5.001 17.283 5.080 17.453 C 5.177 17.661,5.394 17.846,5.646 17.935 C 5.827 17.998,5.947 18.000,10.059 18.000 L 14.287 18.000 14.460 17.914 C 14.673 17.808,14.845 17.613,14.933 17.376 C 14.997 17.204,15.000 17.119,15.000 15.099 L 15.000 13.000 15.793 13.000 C 16.872 13.000,17.093 12.937,17.495 12.519 C 17.696 12.310,17.789 12.158,17.912 11.835 C 17.982 11.652,17.983 11.618,17.993 8.552 C 17.999 6.458,17.991 5.398,17.967 5.283 C 17.868 4.807,17.534 4.386,17.074 4.158 L 16.789 4.017 15.903 4.000 L 15.017 3.983 15.000 3.317 C 14.984 2.662,14.982 2.647,14.891 2.493 C 14.792 2.325,14.673 2.222,14.433 2.095 L 14.283 2.017 10.033 2.011 C 7.298 2.007,5.743 2.017,5.669 2.039 M8.000 7.000 L 8.000 8.000 6.500 8.000 L 5.000 8.000 5.000 7.000 L 5.000 6.000 6.500 6.000 L 8.000 6.000 8.000 7.000 M13.000 13.500 L 13.000 16.000 10.000 16.000 L 7.000 16.000 7.000 13.500 L 7.000 11.000 10.000 11.000 L 13.000 11.000 13.000 13.500 " fill="#1A1C1F" stroke="none" fill-rule="evenodd"></path></svg>
